www/assets/icons/emoji_emotions.svg

<svg xmlns="http://www.w3.org/2000/svg" width="24" height="24" viewBox="0 0 24 24" fill='currentColor'><path d="M11.99 2C6.47 2 2 6.48 2 12s4.47 10 9.99 10C17.52 22 22 17.52 22 12S17.52 2 11.99 2M8.5 8c.83 0 1.5.67 1.5 1.5S9.33 11 8.5 11 7 10.33 7 9.5 7.67 8 8.5 8M12 18c-2.28 0-4.22-1.66-5-4h10c-.78 2.34-2.72 4-5 4m3.5-7c-.83 0-1.5-.67-1.5-1.5S14.67 8 15.5 8s1.5.67 1.5 1.5-.67 1.5-1.5 1.5"/></svg>

<svg width="24" height="24" viewBox="0 0 24 24" xmlns="http://www.w3.org/2000/svg" fill='currentColor'><path d="M11.99 2C6.47 2 2 6.48 2 12C2 17.52 6.47 22 11.99 22C17.52 22 22 17.52 22 12C22 6.48 17.52 2 11.99 2ZM8.5 8C9.33 8 10 8.67 10 9.5C10 10.33 9.33 11 8.5 11C7.67 11 7 10.33 7 9.5C7 8.67 7.67 8 8.5 8ZM12 18C9.72 18 7.78 16.34 7 14H17C16.22 16.34 14.28 18 12 18ZM15.5 11C14.67 11 14 10.33 14 9.5C14 8.67 14.67 8 15.5 8C16.33 8 17 8.67 17 9.5C17 10.33 16.33 11 15.5 11Z"/></svg>
